; G-Code generated by Simplify3D(R) Version 4.0.0
; Apr 28, 2023 at 3:58:26 PM
; Settings Summary
;   processName,fokoos odin 5
;   applyToModels,ProfileSlideA,ProfileSlideB
;   profileName,FokoosPrinterMio
;   profileVersion,2023-04-26 14:38:58
;   baseProfile,Creality CR-10(2)
;   printMaterial,PLA
;   printQuality,Medium
;   printExtruders,
;   extruderName,Primary Extruder
;   extruderToolheadNumber,0
;   extruderDiameter,0.4
;   extruderAutoWidth,1
;   extruderWidth,0.48
;   extrusionMultiplier,0.96
;   extruderUseRetract,1
;   extruderRetractionDistance,5
;   extruderExtraRestartDistance,-0.1
;   extruderRetractionZLift,0
;   extruderRetractionSpeed,2700
;   extruderUseCoasting,1
;   extruderCoastingDistance,0.3
;   extruderUseWipe,1
;   extruderWipeDistance,4
;   primaryExtruder,0
;   layerHeight,0.4
;   topSolidLayers,3
;   bottomSolidLayers,3
;   perimeterOutlines,2
;   printPerimetersInsideOut,1
;   startPointOption,3
;   startPointOriginX,0
;   startPointOriginY,500
;   sequentialIslands,0
;   spiralVaseMode,0
;   firstLayerHeightPercentage,120
;   firstLayerWidthPercentage,120
;   firstLayerUnderspeed,0.5
;   useRaft,0
;   raftExtruder,0
;   raftTopLayers,3
;   raftBaseLayers,2
;   raftOffset,3
;   raftSeparationDistance,0.14
;   raftTopInfill,100
;   aboveRaftSpeedMultiplier,0.3
;   useSkirt,0
;   skirtExtruder,0
;   skirtLayers,1
;   skirtOutlines,10
;   skirtOffset,0.2
;   usePrimePillar,0
;   primePillarExtruder,999
;   primePillarWidth,12
;   primePillarLocation,7
;   primePillarSpeedMultiplier,1
;   useOozeShield,0
;   oozeShieldExtruder,999
;   oozeShieldOffset,2
;   oozeShieldOutlines,1
;   oozeShieldSidewallShape,1
;   oozeShieldSidewallAngle,30
;   oozeShieldSpeedMultiplier,1
;   infillExtruder,0
;   internalInfillPattern,Rectilinear
;   externalInfillPattern,Rectilinear
;   infillPercentage,15
;   outlineOverlapPercentage,15
;   infillExtrusionWidthPercentage,100
;   minInfillLength,5
;   infillLayerInterval,1
;   internalInfillAngles,45,-45
;   overlapInternalInfillAngles,0
;   externalInfillAngles,45,-45
;   generateSupport,0
;   supportExtruder,0
;   supportInfillPercentage,30
;   supportExtraInflation,0
;   supportBaseLayers,0
;   denseSupportExtruder,0
;   denseSupportLayers,0
;   denseSupportInfillPercentage,70
;   supportLayerInterval,1
;   supportHorizontalPartOffset,0.4
;   supportUpperSeparationLayers,1
;   supportLowerSeparationLayers,1
;   supportType,0
;   supportGridSpacing,2
;   maxOverhangAngle,45
;   supportAngles,0
;   temperatureName,Primary Extruder,Heated Bed
;   temperatureNumber,0,0
;   temperatureSetpointCount,1,1
;   temperatureSetpointLayers,1,1
;   temperatureSetpointTemperatures,200,55
;   temperatureStabilizeAtStartup,1,1
;   temperatureHeatedBed,0,1
;   temperatureRelayBetweenLayers,0,0
;   temperatureRelayBetweenLoops,0,0
;   fanLayers,1,2,5
;   fanSpeeds,0,25,100
;   blipFanToFullPower,1
;   adjustSpeedForCooling,1
;   minSpeedLayerTime,7
;   minCoolingSpeedSlowdown,30
;   increaseFanForCooling,0
;   minFanLayerTime,45
;   maxCoolingFanSpeed,100
;   increaseFanForBridging,1
;   bridgingFanSpeed,100
;   use5D,1
;   relativeEdistances,0
;   allowEaxisZeroing,1
;   independentExtruderAxes,0
;   includeM10123,0
;   stickySupport,1
;   applyToolheadOffsets,0
;   gcodeXoffset,0
;   gcodeYoffset,0
;   gcodeZoffset,0
;   overrideMachineDefinition,1
;   machineTypeOverride,0
;   strokeXoverride,230
;   strokeYoverride,230
;   strokeZoverride,250
;   originOffsetXoverride,0
;   originOffsetYoverride,0
;   originOffsetZoverride,0
;   homeXdirOverride,-1
;   homeYdirOverride,-1
;   homeZdirOverride,-1
;   flipXoverride,1
;   flipYoverride,-1
;   flipZoverride,1
;   toolheadOffsets,0,0|0,0|0,0|0,0|0,0|0,0
;   overrideFirmwareConfiguration,1
;   firmwareTypeOverride,RepRap (Marlin/Repetier/Sprinter)
;   GPXconfigOverride,r2
;   baudRateOverride,115200
;   overridePrinterModels,1
;   printerModelsOverride
;   startingGcode,G28 ; home all axes,M117 Purge extruder,G92 E0 ; reset extruder,G1 Z1.0 F3000 ; move z up little to prevent scratching of surface,G1 X0.1 Y20 Z0.3 F5000.0 ; move to start-line position,G1 X0.1 Y200.0 Z0.3 F1500.0 E35 ; draw 1st line,G1 X0.6 Y200.0 Z0.3 F5000.0 ; move to side a little,G1 X0.4 Y20 Z0.3 F1500.0 E30 ; draw 2nd line,; G1 E27 F3000 ; retract filament 3mm,G92 E0 ; reset extruder,; done purging extruder,G1 Z1.0 F3000 ; move z up little to prevent scratching of surface,
;   layerChangeGcode,
;   retractionGcode,
;   toolChangeGcode,
;   endingGcode,M104 S0; turn off extruder,M140 S0 ; turn off bed,G1 X0 Y300 F1000 ; prepare for part removal,M84 ; disable motors,M106 S0 ; turn off fan,,M300 S294 P200 ;D4: 294,M300 S588 P200 ;D5: 588,M300 S440 P200 ;A4: 440,M300 S392 P200 ;G4: 392,M300 S784 P200 ;G5: 784,M300 S440 P200 ;A4: 440,M300 S740 P200 ;F#5: 740,M300 S440 P200 ;A4: 440
;   exportFileFormat,gcode
;   celebration,0
;   celebrationSong,Star Wars
;   postProcessing,
;   defaultSpeed,4000
;   outlineUnderspeed,0.75
;   solidInfillUnderspeed,0.8
;   supportUnderspeed,0.8
;   rapidXYspeed,7200
;   rapidZspeed,1002
;   minBridgingArea,50
;   bridgingExtraInflation,0
;   bridgingExtrusionMultiplier,1
;   bridgingSpeedMultiplier,1
;   useFixedBridgingAngle,0
;   fixedBridgingAngle,0
;   applyBridgingToPerimeters,1
;   filamentDiameters,1.75|1.75|1.75|1.75|1.75|1.75
;   filamentPricesPerKg,17.99|46|46|46|46|46
;   filamentDensities,1.25|1.25|1.25|1.25|1.25|1.25
;   useMinPrintHeight,0
;   minPrintHeight,0
;   useMaxPrintHeight,0
;   maxPrintHeight,0
;   useDiaphragm,0
;   diaphragmLayerInterval,20
;   robustSlicing,1
;   mergeAllIntoSolid,0
;   onlyRetractWhenCrossingOutline,0
;   retractBetweenLayers,1
;   useRetractionMinTravel,1
;   retractionMinTravel,3
;   retractWhileWiping,1
;   onlyWipeOutlines,1
;   avoidCrossingOutline,1
;   maxMovementDetourFactor,1
;   toolChangeRetractionDistance,12
;   toolChangeExtraRestartDistance,-0.5
;   toolChangeRetractionSpeed,600
;   externalThinWallType,1
;   internalThinWallType,2
;   thinWallAllowedOverlapPercentage,0
;   singleExtrusionMinLength,0
;   singleExtrusionMinPrintingWidthPercentage,50
;   singleExtrusionMaxPrintingWidthPercentage,200
;   singleExtrusionEndpointExtension,0.1
;   horizontalSizeCompensation,0
G90
M82
M106 S255
G4 P500
M106 S0
M140 S55
M190 S55
M104 S200 T0
M109 S200 T0
G28 ; home all axes
M117 Purge extruder
G92 E0 ; reset extruder
G1 Z1.0 F3000 ; move z up little to prevent scratching of surface
G1 X0.1 Y20 Z0.3 F5000.0 ; move to start-line position
G1 X0.1 Y200.0 Z0.3 F1500.0 E35 ; draw 1st line
G1 X0.6 Y200.0 Z0.3 F5000.0 ; move to side a little
G1 X0.4 Y20 Z0.3 F1500.0 E30 ; draw 2nd line
; G1 E27 F3000 ; retract filament 3mm
G92 E0 ; reset extruder
; done purging extruder
G1 Z1.0 F3000 ; move z up little to prevent scratching of surface
G92 E0
G1 E-5.0000 F2700
G1 Z0.480 F1002
; process fokoos odin 5
; layer 1, Z = 0.480
T0
; tool H0.480 W0.576
; inner perimeter
G1 X103.864 Y115.552 F7200
G1 E-0.1000 F810
G92 E0
G1 X103.864 Y107.680 E0.8687 F1750
G1 X111.699 Y107.680 E1.7332
G1 X111.948 Y107.652 E1.7609
G1 X112.313 Y107.477 E1.8056
G1 X112.525 Y107.264 E1.8387
G1 X112.685 Y107.010 E1.8718
G1 X112.764 Y106.664 E1.9111
G1 X112.764 Y104.769 E2.1201
G1 X112.674 Y104.374 E2.1648
G1 X112.390 Y104.018 E2.2151
G1 X112.094 Y103.831 E2.2537
G1 X111.748 Y103.752 E2.2929
G1 X110.472 Y103.752 E2.4337
G1 X110.324 Y103.397 E2.4762
G1 X112.141 Y101.580 E2.7597
G1 X117.452 Y101.580 E3.3458
G1 X119.266 Y103.393 E3.6288
G1 X119.119 Y103.749 E3.6712
G1 X117.865 Y103.753 E3.8095
G1 X117.463 Y103.838 E3.8549
G1 X117.063 Y104.157 E3.9113
G1 X116.865 Y104.567 E3.9616
G1 X116.836 Y104.817 E3.9894
G1 X116.836 Y106.664 E4.1932
G1 X116.926 Y107.058 E4.2378
G1 X117.209 Y107.414 E4.2880
G1 X117.505 Y107.601 E4.3266
G1 X117.852 Y107.680 E4.3659
G1 X125.736 Y107.680 E5.2359
G1 X125.736 Y115.552 E6.1046
G1 X120.296 Y115.552 E6.7048
G1 X123.684 Y109.685 E7.4524
G1 X106.914 Y109.685 E9.3030
G1 X106.415 Y110.549 E9.4131
G1 X109.137 Y115.264 E10.0140
G1 X108.971 Y115.552 E10.0507
G1 X104.164 Y115.552 E10.5811
G1 X103.864 Y115.552 F1750
; outer perimeter
G1 X103.288 Y116.128 F7200
G92 E0
G1 X103.288 Y107.104 E0.9958 F1500
G1 X111.667 Y107.104 E1.9204
G1 X111.787 Y107.091 E1.9337
G1 X111.975 Y107.000 E1.9568
G1 X112.072 Y106.903 E1.9719
G1 X112.145 Y106.787 E1.9871
G1 X112.188 Y106.599 E2.0083
G1 X112.188 Y104.834 E2.2031
G1 X112.142 Y104.630 E2.2261
G1 X112.001 Y104.453 E2.2511
G1 X111.870 Y104.371 E2.2681
G1 X111.683 Y104.328 E2.2893
G1 X109.788 Y104.328 E2.4984
G1 X109.788 Y103.118 E2.6319
G1 X111.902 Y101.004 E2.9618
G1 X117.691 Y101.004 E3.6006
G1 X119.812 Y103.125 E3.9316
G1 X119.812 Y104.322 E4.0637
G1 X117.927 Y104.328 E4.2718
G1 X117.716 Y104.373 E4.2956
G1 X117.524 Y104.526 E4.3226
G1 X117.426 Y104.729 E4.3475
G1 X117.412 Y104.850 E4.3609
G1 X117.412 Y106.599 E4.5539
G1 X117.458 Y106.802 E4.5770
G1 X117.599 Y106.979 E4.6019
G1 X117.729 Y107.061 E4.6189
G1 X117.917 Y107.104 E4.6401
G1 X126.312 Y107.104 E5.5665
G1 X126.312 Y116.128 E6.5623
G1 X119.299 Y116.128 E7.3362
G1 X122.686 Y110.261 E8.0838
G1 X107.246 Y110.261 E9.7876
G1 X107.080 Y110.549 E9.8243
G1 X110.135 Y115.840 E10.4986
G1 X109.969 Y116.128 E10.5353
G1 X103.588 Y116.128 E11.2394
G1 X103.288 Y116.128 F1500
G92 E0
G1 X103.288 Y108.721 E-5.0000 F4000
; solid layer
G1 X104.354 Y114.943 F7200
G1 E-0.1000 F2700
G92 E0
G1 X104.473 Y115.063 E0.0186 F1600
G1 X105.288 Y115.063 E0.1085
G1 X104.354 Y114.129 E0.2543
G1 X104.354 Y113.314 E0.3442
G1 X106.102 Y115.063 E0.6171
G1 X106.917 Y115.063 E0.7070
G1 X104.354 Y112.499 E1.1070
G1 X104.354 Y111.685 E1.1969
G1 X107.731 Y115.063 E1.7240
G1 X108.455 Y115.063 E1.8039
G1 X108.332 Y114.848 E1.8312
G1 X104.354 Y110.870 E2.4520
G1 X104.354 Y110.056 E2.5419
G1 X107.219 Y112.921 E2.9891
G1 X106.106 Y110.994 E3.2347
G1 X104.354 Y109.241 E3.5082
G1 X104.354 Y108.427 E3.5981
G1 X106.079 Y110.152 E3.8673
G1 X106.377 Y109.635 E3.9331
G1 X104.912 Y108.170 E4.1618
G1 X105.726 Y108.170 E4.2517
G1 X106.752 Y109.195 E4.4117
G1 X107.566 Y109.195 E4.5016
G1 X106.541 Y108.170 E4.6616
G1 X107.355 Y108.170 E4.7515
G1 X108.381 Y109.195 E4.9116
G1 X109.195 Y109.195 E5.0015
G1 X108.170 Y108.170 E5.1615
G1 X108.984 Y108.170 E5.2514
G1 X110.010 Y109.195 E5.4114
G1 X110.825 Y109.195 E5.5013
G1 X109.799 Y108.170 E5.6613
G1 X110.614 Y108.170 E5.7512
G1 X111.639 Y109.195 E5.9112
G1 X112.454 Y109.195 E6.0011
G1 X111.428 Y108.170 E6.1612
G1 X111.726 Y108.170 E6.1941
G1 X112.086 Y108.129 E6.2340
G1 X112.164 Y108.091 E6.2436
G1 X113.268 Y109.195 E6.4159
G1 X114.083 Y109.195 E6.5057
G1 X112.685 Y107.797 E6.7239
G1 X112.910 Y107.571 E6.7592
G1 X113.051 Y107.348 E6.7882
G1 X114.897 Y109.195 E7.0764
G1 X115.712 Y109.195 E7.1663
G1 X113.250 Y106.734 E7.5505
G1 X113.254 Y106.719 E7.5522
G1 X113.254 Y105.922 E7.6401
G1 X116.527 Y109.195 E8.1509
G1 X117.341 Y109.195 E8.2407
G1 X113.466 Y105.320 E8.8455
G1 X113.254 Y105.108 F1600
G92 E0
G1 E-5.0000 F2700
G1 X117.925 Y103.263 F7200
G1 E-0.1000 F2700
G92 E0
G1 X116.732 Y102.070 E0.1862 F1600
G1 X115.918 Y102.070 E0.2761
G1 X117.239 Y103.391 E0.4822
G1 X116.785 Y103.752 E0.5462
G1 X115.103 Y102.070 E0.8087
G1 X114.289 Y102.070 E0.8985
G1 X116.472 Y104.253 E1.2393
G1 X116.388 Y104.428 E1.2607
G1 X116.346 Y104.789 E1.3008
G1 X116.346 Y104.942 E1.3177
G1 X113.474 Y102.070 E1.7659
G1 X112.660 Y102.070 E1.8558
G1 X116.346 Y105.757 E2.4312
G1 X116.346 Y106.571 E2.5211
G1 X112.094 Y102.319 E3.1847
G1 X111.687 Y102.726 E3.2482
G1 X112.416 Y103.456 E3.3620
G1 X112.721 Y103.648 E3.4018
G1 X113.127 Y104.157 E3.4736
G1 X113.129 Y104.169 E3.4750
G1 X118.156 Y109.195 E4.2594
G1 X118.970 Y109.195 E4.3493
G1 X117.945 Y108.170 E4.5093
G1 X118.760 Y108.170 E4.5992
G1 X119.785 Y109.195 E4.7592
G1 X120.600 Y109.195 E4.8491
G1 X119.574 Y108.170 E5.0092
G1 X120.389 Y108.170 E5.0991
G1 X121.414 Y109.195 E5.2591
G1 X122.229 Y109.195 E5.3490
G1 X121.203 Y108.170 E5.5090
G1 X122.018 Y108.170 E5.5989
G1 X123.043 Y109.195 E5.7589
G1 X123.858 Y109.195 E5.8488
G1 X122.832 Y108.170 E6.0088
G1 X123.647 Y108.170 E6.0987
G1 X125.246 Y109.769 E6.3483
G1 X125.246 Y108.955 E6.4382
G1 X124.674 Y108.382 E6.5276
G1 X124.462 Y108.170 F1600
G1 X124.285 Y109.623 F7200
G92 E0
G1 X125.246 Y110.584 E0.1500 F1600
G1 X125.246 Y111.398 E0.2399
G1 X123.987 Y110.139 E0.4364
G1 X123.689 Y110.656 E0.5022
G1 X125.246 Y112.213 E0.7452
G1 X125.246 Y113.028 E0.8351
G1 X123.391 Y111.172 E1.1247
G1 X123.093 Y111.688 E1.1905
G1 X125.246 Y113.842 E1.5266
G1 X125.246 Y114.657 E1.6165
G1 X122.794 Y112.205 E1.9992
G1 X122.496 Y112.721 E2.0650
G1 X124.838 Y115.063 E2.4304
G1 X124.023 Y115.063 E2.5202
G1 X122.198 Y113.238 E2.8051
G1 X121.900 Y113.754 E2.8709
G1 X123.209 Y115.063 E3.0751
G1 X122.394 Y115.063 E3.1650
G1 X121.602 Y114.271 E3.2886
G1 X121.304 Y114.787 E3.3544
G1 X121.367 Y114.851 E3.3643
G1 X121.579 Y115.063 F1600
G92 E0
G1 E-5.0000 F2700
; inner perimeter
G1 X112.021 Y128.420 F7200
G1 E-0.1000 F2700
G92 E0
G1 X111.854 Y128.132 E0.0367 F1750
G1 X112.344 Y127.284 E0.1448
G1 X109.622 Y122.568 E0.7456
G1 X109.788 Y122.280 E0.7823
G1 X120.212 Y122.280 E1.9326
G1 X120.378 Y122.568 E1.9693
G1 X117.656 Y127.284 E2.5701
G1 X118.146 Y128.132 E2.6782
G1 X117.979 Y128.420 E2.7149
G1 X112.321 Y128.420 E3.3393
G1 X112.021 Y128.420 F1750
G92 E0
G1 E-5.0000 F2700
; outer perimeter
G1 X103.288 Y128.996 F7200
G1 E-0.1000 F2700
G92 E0
G1 X103.288 Y127.572 E0.1571 F1500
G1 X111.513 Y127.572 E1.0647
G1 X111.679 Y127.284 E1.1014
G1 X108.624 Y121.992 E1.7757
G1 X108.790 Y121.704 E1.8123
G1 X121.210 Y121.704 E3.1828
G1 X121.376 Y121.992 E3.2195
G1 X118.321 Y127.284 E3.8938
G1 X118.487 Y127.572 E3.9305
G1 X126.712 Y127.572 E4.8380
G1 X126.712 Y128.996 E4.9952
G1 X103.588 Y128.996 E7.5469
G1 X103.288 Y128.996 F1500
G1 X103.288 Y127.572 F4000
G1 X109.271 Y127.572 F4000
; gap fill
G1 X110.961 Y128.067 F7200
G92 E0
G1 X111.394 Y128.500 E0.0676 F1600
G1 X110.579 Y128.500 E0.1575
G1 X110.146 Y128.067 E0.2251
G1 X109.332 Y128.067 E0.3150
G1 X109.765 Y128.500 E0.3826
G1 X108.950 Y128.500 E0.4725
G1 X108.517 Y128.067 E0.5401
G1 X107.702 Y128.067 E0.6300
G1 X108.136 Y128.500 E0.6976
G1 X107.321 Y128.500 E0.7875
G1 X106.888 Y128.067 E0.8552
G1 X106.073 Y128.067 E0.9450
G1 X106.506 Y128.500 E1.0127
G1 X105.692 Y128.500 E1.1025
G1 X105.259 Y128.067 E1.1702
G1 X104.444 Y128.067 E1.2601
G1 X104.877 Y128.500 E1.3277
G1 X104.063 Y128.500 E1.4176
G1 X103.995 Y128.433 E1.4281
G1 X103.783 Y128.221 F1600
G92 E0
G1 E-5.0000 F2700
G1 X118.585 Y128.360 F7200
G1 E-0.1000 F2700
G92 E0
G1 X118.725 Y128.500 E0.0218 F1600
G1 X119.540 Y128.500 E0.1117
G1 X119.107 Y128.067 E0.1793
G1 X119.921 Y128.067 E0.2692
G1 X120.354 Y128.500 E0.3368
G1 X121.169 Y128.500 E0.4267
G1 X120.736 Y128.067 E0.4943
G1 X121.550 Y128.067 E0.5842
G1 X121.984 Y128.500 E0.6519
G1 X122.798 Y128.500 E0.7417
G1 X122.365 Y128.067 E0.8094
G1 X123.180 Y128.067 E0.8993
G1 X123.613 Y128.500 E0.9669
G1 X124.427 Y128.500 E1.0568
G1 X123.994 Y128.067 E1.1244
G1 X124.809 Y128.067 E1.2143
G1 X125.242 Y128.500 E1.2819
G1 X126.057 Y128.500 E1.3718
G1 X125.835 Y128.279 E1.4063
G1 X125.623 Y128.067 F1600
G92 E0
G1 E-5.0000 F2700
; solid layer
G1 X119.512 Y122.770 F7200
G1 E-0.1000 F2700
G92 E0
G1 X119.629 Y122.887 E0.0183 F1600
G1 X119.331 Y123.404 E0.0841
G1 X118.697 Y122.770 E0.1830
G1 X117.882 Y122.770 E0.2729
G1 X119.033 Y123.920 E0.4524
G1 X118.734 Y124.436 E0.5182
G1 X117.068 Y122.770 E0.7783
G1 X116.253 Y122.770 E0.8682
G1 X118.436 Y124.953 E1.2088
G1 X118.138 Y125.469 E1.2746
G1 X115.439 Y122.770 E1.6959
G1 X114.624 Y122.770 E1.7858
G1 X117.840 Y125.986 E2.2877
G1 X117.542 Y126.502 E2.3535
G1 X113.809 Y122.770 E2.9359
G1 X112.995 Y122.770 E3.0258
G1 X117.244 Y127.019 E3.6889
G1 X117.091 Y127.284 E3.7226
G1 X117.464 Y127.930 E3.8050
G1 X117.340 Y127.930 E3.8186
G1 X112.180 Y122.770 E4.6239
G1 X111.366 Y122.770 E4.7138
G1 X116.526 Y127.930 E5.5191
G1 X115.711 Y127.930 E5.6090
G1 X110.551 Y122.770 E6.4142
G1 X110.303 Y122.770 E6.4416
G1 X111.078 Y124.111 E6.6125
G1 X114.897 Y127.930 E7.2085
G1 X114.082 Y127.930 E7.2983
