; G-Code generated by Simplify3D(R) Version 4.0.0
; Apr 26, 2023 at 2:38:01 PM
; Settings Summary
;   processName,Fokoos printer
;   applyToModels,PartA2,PartB3
;   profileName,FokoosPrinterMio (modified)
;   profileVersion,2023-04-18 14:41:49
;   baseProfile,Creality CR-10(2)
;   printMaterial,PLA
;   printQuality,Medium
;   printExtruders,
;   extruderName,Primary Extruder
;   extruderToolheadNumber,0
;   extruderDiameter,0.4
;   extruderAutoWidth,1
;   extruderWidth,0.48
;   extrusionMultiplier,0.96
;   extruderUseRetract,1
;   extruderRetractionDistance,5
;   extruderExtraRestartDistance,-0.1
;   extruderRetractionZLift,0
;   extruderRetractionSpeed,2700
;   extruderUseCoasting,1
;   extruderCoastingDistance,0.3
;   extruderUseWipe,1
;   extruderWipeDistance,4
;   primaryExtruder,0
;   layerHeight,0.4
;   topSolidLayers,3
;   bottomSolidLayers,3
;   perimeterOutlines,2
;   printPerimetersInsideOut,1
;   startPointOption,3
;   startPointOriginX,0
;   startPointOriginY,500
;   sequentialIslands,0
;   spiralVaseMode,0
;   firstLayerHeightPercentage,120
;   firstLayerWidthPercentage,120
;   firstLayerUnderspeed,0.5
;   useRaft,0
;   raftExtruder,0
;   raftTopLayers,3
;   raftBaseLayers,2
;   raftOffset,3
;   raftSeparationDistance,0.14
;   raftTopInfill,100
;   aboveRaftSpeedMultiplier,0.3
;   useSkirt,0
;   skirtExtruder,0
;   skirtLayers,1
;   skirtOutlines,10
;   skirtOffset,0.2
;   usePrimePillar,0
;   primePillarExtruder,999
;   primePillarWidth,12
;   primePillarLocation,7
;   primePillarSpeedMultiplier,1
;   useOozeShield,0
;   oozeShieldExtruder,999
;   oozeShieldOffset,2
;   oozeShieldOutlines,1
;   oozeShieldSidewallShape,1
;   oozeShieldSidewallAngle,30
;   oozeShieldSpeedMultiplier,1
;   infillExtruder,0
;   internalInfillPattern,Rectilinear
;   externalInfillPattern,Rectilinear
;   infillPercentage,15
;   outlineOverlapPercentage,15
;   infillExtrusionWidthPercentage,100
;   minInfillLength,5
;   infillLayerInterval,1
;   internalInfillAngles,45,-45
;   overlapInternalInfillAngles,0
;   externalInfillAngles,45,-45
;   generateSupport,0
;   supportExtruder,0
;   supportInfillPercentage,30
;   supportExtraInflation,0
;   supportBaseLayers,0
;   denseSupportExtruder,0
;   denseSupportLayers,0
;   denseSupportInfillPercentage,70
;   supportLayerInterval,1
;   supportHorizontalPartOffset,0.4
;   supportUpperSeparationLayers,1
;   supportLowerSeparationLayers,1
;   supportType,0
;   supportGridSpacing,2
;   maxOverhangAngle,45
;   supportAngles,0
;   temperatureName,Primary Extruder,Heated Bed
;   temperatureNumber,0,0
;   temperatureSetpointCount,1,1
;   temperatureSetpointLayers,1,1
;   temperatureSetpointTemperatures,200,55
;   temperatureStabilizeAtStartup,1,1
;   temperatureHeatedBed,0,1
;   temperatureRelayBetweenLayers,0,0
;   temperatureRelayBetweenLoops,0,0
;   fanLayers,1,2,5
;   fanSpeeds,0,25,100
;   blipFanToFullPower,1
;   adjustSpeedForCooling,1
;   minSpeedLayerTime,7
;   minCoolingSpeedSlowdown,30
;   increaseFanForCooling,0
;   minFanLayerTime,45
;   maxCoolingFanSpeed,100
;   increaseFanForBridging,1
;   bridgingFanSpeed,100
;   use5D,1
;   relativeEdistances,0
;   allowEaxisZeroing,1
;   independentExtruderAxes,0
;   includeM10123,0
;   stickySupport,1
;   applyToolheadOffsets,0
;   gcodeXoffset,0
;   gcodeYoffset,0
;   gcodeZoffset,0
;   overrideMachineDefinition,1
;   machineTypeOverride,0
;   strokeXoverride,230
;   strokeYoverride,230
;   strokeZoverride,250
;   originOffsetXoverride,0
;   originOffsetYoverride,0
;   originOffsetZoverride,0
;   homeXdirOverride,-1
;   homeYdirOverride,-1
;   homeZdirOverride,-1
;   flipXoverride,1
;   flipYoverride,-1
;   flipZoverride,1
;   toolheadOffsets,0,0|0,0|0,0|0,0|0,0|0,0
;   overrideFirmwareConfiguration,1
;   firmwareTypeOverride,RepRap (Marlin/Repetier/Sprinter)
;   GPXconfigOverride,r2
;   baudRateOverride,115200
;   overridePrinterModels,1
;   printerModelsOverride
;   startingGcode,G28 ; home all axes,M117 Purge extruder,G92 E0 ; reset extruder,G1 Z1.0 F3000 ; move z up little to prevent scratching of surface,G1 X0.1 Y20 Z0.3 F5000.0 ; move to start-line position,G1 X0.1 Y200.0 Z0.3 F1500.0 E35 ; draw 1st line,G1 X0.6 Y200.0 Z0.3 F5000.0 ; move to side a little,G1 X0.4 Y20 Z0.3 F1500.0 E30 ; draw 2nd line,; G1 E27 F3000 ; retract filament 3mm,G92 E0 ; reset extruder,; done purging extruder,G1 Z1.0 F3000 ; move z up little to prevent scratching of surface,
;   layerChangeGcode,
;   retractionGcode,
;   toolChangeGcode,
;   endingGcode,M104 S0; turn off extruder,M140 S0 ; turn off bed,G1 X0 Y300 F1000 ; prepare for part removal,M84 ; disable motors,M106 S0 ; turn off fan,,M300 S294 P200 ;D4: 294,M300 S588 P200 ;D5: 588,M300 S440 P200 ;A4: 440,M300 S392 P200 ;G4: 392,M300 S784 P200 ;G5: 784,M300 S440 P200 ;A4: 440,M300 S740 P200 ;F#5: 740,M300 S440 P200 ;A4: 440
;   exportFileFormat,gcode
;   celebration,0
;   celebrationSong,Star Wars
;   postProcessing,
;   defaultSpeed,4000
;   outlineUnderspeed,0.75
;   solidInfillUnderspeed,0.8
;   supportUnderspeed,0.8
;   rapidXYspeed,7200
;   rapidZspeed,1002
;   minBridgingArea,50
;   bridgingExtraInflation,0
;   bridgingExtrusionMultiplier,1
;   bridgingSpeedMultiplier,1
;   useFixedBridgingAngle,0
;   fixedBridgingAngle,0
;   applyBridgingToPerimeters,1
;   filamentDiameters,1.75|1.75|1.75|1.75|1.75|1.75
;   filamentPricesPerKg,17.99|46|46|46|46|46
;   filamentDensities,1.25|1.25|1.25|1.25|1.25|1.25
;   useMinPrintHeight,0
;   minPrintHeight,0
;   useMaxPrintHeight,0
;   maxPrintHeight,0
;   useDiaphragm,0
;   diaphragmLayerInterval,20
;   robustSlicing,1
;   mergeAllIntoSolid,0
;   onlyRetractWhenCrossingOutline,0
;   retractBetweenLayers,1
;   useRetractionMinTravel,1
;   retractionMinTravel,3
;   retractWhileWiping,1
;   onlyWipeOutlines,1
;   avoidCrossingOutline,1
;   maxMovementDetourFactor,1
;   toolChangeRetractionDistance,12
;   toolChangeExtraRestartDistance,-0.5
;   toolChangeRetractionSpeed,600
;   externalThinWallType,1
;   internalThinWallType,2
;   thinWallAllowedOverlapPercentage,0
;   singleExtrusionMinLength,0
;   singleExtrusionMinPrintingWidthPercentage,50
;   singleExtrusionMaxPrintingWidthPercentage,200
;   singleExtrusionEndpointExtension,0.1
;   horizontalSizeCompensation,0
G90
M82
M106 S255
G4 P500
M106 S0
M140 S55
M190 S55
M104 S200 T0
M109 S200 T0
G28 ; home all axes
M117 Purge extruder
G92 E0 ; reset extruder
G1 Z1.0 F3000 ; move z up little to prevent scratching of surface
G1 X0.1 Y20 Z0.3 F5000.0 ; move to start-line position
G1 X0.1 Y200.0 Z0.3 F1500.0 E35 ; draw 1st line
G1 X0.6 Y200.0 Z0.3 F5000.0 ; move to side a little
G1 X0.4 Y20 Z0.3 F1500.0 E30 ; draw 2nd line
; G1 E27 F3000 ; retract filament 3mm
G92 E0 ; reset extruder
; done purging extruder
G1 Z1.0 F3000 ; move z up little to prevent scratching of surface
G92 E0
G1 E-5.0000 F2700
G1 Z0.480 F1002
; process Fokoos printer
; layer 1, Z = 0.480
T0
; tool H0.480 W0.576
; inner perimeter
G1 X114.766 Y115.945 F7200
G1 E-0.1000 F810
G92 E0
G1 X114.766 Y113.691 E0.2487 F1750
G1 X94.233 Y108.027 E2.5992
G1 X93.959 Y107.918 E2.6316
G1 X93.757 Y107.780 E2.6586
G1 X93.589 Y107.603 E2.6857
G1 X93.463 Y107.393 E2.7127
G1 X93.385 Y107.160 E2.7398
G1 X93.353 Y106.872 E2.7717
G1 X93.353 Y95.173 E4.0627
G1 X94.625 Y95.173 E4.2031
G1 X94.625 Y104.333 E5.2139
G1 X94.689 Y104.910 E5.2780
G1 X94.889 Y105.497 E5.3464
G1 X95.207 Y106.024 E5.4143
G1 X95.634 Y106.474 E5.4828
G1 X96.152 Y106.824 E5.5518
G1 X96.682 Y107.034 E5.6147
G1 X123.625 Y114.467 E8.6989
G1 X123.625 Y115.945 E8.8620
G1 X115.066 Y115.945 E9.8065
G1 X114.766 Y115.945 F1750
; outer perimeter
G1 X114.190 Y116.521 F7200
G92 E0
G1 X114.190 Y114.130 E0.2639 F1500
G1 X94.049 Y108.574 E2.5694
G1 X93.688 Y108.430 E2.6123
G1 X93.382 Y108.222 E2.6532
G1 X93.127 Y107.953 E2.6940
G1 X92.937 Y107.635 E2.7349
G1 X92.819 Y107.284 E2.7758
G1 X92.777 Y106.903 E2.8180
G1 X92.777 Y94.597 E4.1760
G1 X95.201 Y94.597 E4.4435
G1 X95.201 Y104.302 E5.5145
G1 X95.255 Y104.784 E5.5680
G1 X95.414 Y105.253 E5.6226
G1 X95.668 Y105.673 E5.6768
G1 X96.008 Y106.032 E5.7314
G1 X96.423 Y106.312 E5.7866
G1 X96.866 Y106.487 E5.8392
G1 X124.201 Y114.028 E8.9683
G1 X124.201 Y116.521 E9.2434
G1 X114.490 Y116.521 E10.3150
G1 X114.190 Y116.521 F1500
G92 E0
G1 X114.190 Y114.130 E-1.6141 F4000
G1 X109.355 Y112.796 E-5.0000
; solid layer
G1 X115.256 Y113.529 F7200
G1 E-0.1000 F2700
G92 E0
G1 X117.182 Y115.455 E0.3007 F1600
G1 X116.368 Y115.455 E0.3906
G1 X115.256 Y114.343 E0.5641
G1 X115.256 Y115.158 E0.6540
G1 X115.341 Y115.243 E0.6674
G1 X115.553 Y115.455 F1600
G92 E0
G1 E-5.0000 F2700
G1 X123.064 Y114.820 F7200
G1 E-0.1000 F2700
G92 E0
G1 X123.136 Y114.892 E0.0112 F1600
G1 X123.136 Y115.455 E0.0734
G1 X122.885 Y115.455 E0.1011
G1 X121.939 Y114.509 E0.2487
G1 X120.814 Y114.199 E0.3775
G1 X122.070 Y115.455 E0.5735
G1 X121.255 Y115.455 E0.6634
G1 X119.689 Y113.889 E0.9079
G1 X118.564 Y113.578 E1.0367
G1 X120.441 Y115.455 E1.3295
G1 X119.626 Y115.455 E1.4194
G1 X117.439 Y113.268 E1.7607
G1 X116.314 Y112.958 E1.8895
G1 X118.812 Y115.455 E2.2793
G1 X117.997 Y115.455 E2.3691
G1 X115.189 Y112.648 E2.8073
G1 X114.064 Y112.337 E2.9361
G1 X114.965 Y113.238 E3.0767
G1 X113.840 Y112.928 E3.2054
G1 X112.939 Y112.027 E3.3460
G1 X111.815 Y111.717 E3.4748
G1 X112.715 Y112.617 E3.6154
G1 X111.591 Y112.307 E3.7442
G1 X110.690 Y111.406 E3.8848
G1 X109.565 Y111.096 E4.0135
G1 X110.466 Y111.997 E4.1541
G1 X109.341 Y111.686 E4.2829
G1 X108.440 Y110.786 E4.4235
G1 X107.315 Y110.475 E4.5522
G1 X108.216 Y111.376 E4.6928
G1 X107.091 Y111.066 E4.8216
G1 X106.190 Y110.165 E4.9622
G1 X105.065 Y109.855 E5.0910
G1 X105.966 Y110.756 E5.2316
G1 X104.841 Y110.445 E5.3603
G1 X103.940 Y109.544 E5.5009
G1 X102.815 Y109.234 E5.6297
G1 X103.716 Y110.135 E5.7703
G1 X102.591 Y109.825 E5.8990
G1 X101.690 Y108.924 E6.0396
G1 X100.565 Y108.613 E6.1684
G1 X101.466 Y109.514 E6.3090
G1 X100.341 Y109.204 E6.4378
G1 X99.441 Y108.303 E6.5784
G1 X98.316 Y107.993 E6.7071
G1 X99.217 Y108.894 E6.8477
G1 X98.092 Y108.583 E6.9765
G1 X97.191 Y107.682 E7.1171
G1 X96.527 Y107.499 E7.1931
G1 X95.974 Y107.280 E7.2588
G1 X96.967 Y108.273 E7.4137
G1 X95.842 Y107.963 E7.5425
G1 X93.843 Y105.964 E7.8545
G1 X93.843 Y105.149 E7.9444
G1 X94.508 Y105.814 E8.0482
G1 X94.442 Y105.705 E8.0623
G1 X94.208 Y105.017 E8.1424
G1 X94.169 Y104.660 E8.1821
G1 X93.843 Y104.334 E8.2329
G1 X93.843 Y103.520 E8.3228
G1 X94.136 Y103.813 E8.3685
G1 X94.136 Y102.998 E8.4584
G1 X93.843 Y102.705 E8.5041
G1 X93.843 Y101.891 E8.5940
G1 X94.136 Y102.184 E8.6397
G1 X94.136 Y101.369 E8.7296
G1 X93.843 Y101.076 E8.7752
G1 X93.843 Y100.262 E8.8651
G1 X94.136 Y100.554 E8.9108
G1 X94.136 Y99.740 E9.0007
G1 X93.843 Y99.447 E9.0464
G1 X93.843 Y98.632 E9.1363
G1 X94.136 Y98.925 E9.1820
G1 X94.136 Y98.111 E9.2719
G1 X93.843 Y97.818 E9.3176
G1 X93.843 Y97.003 E9.4075
G1 X94.136 Y97.296 E9.4532
G1 X94.136 Y96.481 E9.5430
G1 X93.843 Y96.189 E9.5887
G1 X93.843 Y95.668 E9.6462
G1 X93.843 Y95.662 F1600
G1 X94.131 Y95.662 F1600
G1 X94.136 Y95.667 F1600
G92 E0
G1 E-5.0000 F2700
G1 X93.843 Y106.778 F7200
G1 E-0.1000 F2700
G92 E0
G1 X94.505 Y107.440 E0.1033 F1600
G1 X94.717 Y107.652 F1600
G92 E0
G1 E-5.0000 F2700
; inner perimeter
G1 X93.353 Y162.327 F7200
G1 E-0.1000 F2700
G92 E0
G1 X93.353 Y153.594 E0.9637 F1750
G1 X136.647 Y153.594 E5.7411
G1 X136.647 Y162.327 E6.7047
G1 X93.653 Y162.327 E11.4490
G1 X93.353 Y162.327 F1750
; outer perimeter
G1 X92.777 Y162.903 F7200
G92 E0
G1 X92.777 Y153.018 E1.0908 F1500
G1 X137.223 Y153.018 E5.9953
G1 X137.223 Y162.903 E7.0861
G1 X93.077 Y162.903 E11.9575
G1 X92.777 Y162.903 F1500
G92 E0
G1 X92.777 Y155.496 E-5.0000 F4000
; inner perimeter
G1 X96.466 Y159.459 F7200
G1 E-0.1000 F2700
G92 E0
G1 X97.020 Y159.596 E0.0631 F1750
G1 X97.592 Y159.596 E0.1261
G1 X98.147 Y159.459 E0.1892
G1 X98.653 Y159.194 E0.2522
G1 X99.080 Y158.815 E0.3153
G1 X99.405 Y158.344 E0.3783
G1 X99.608 Y157.810 E0.4414
G1 X99.677 Y157.243 E0.5045
G1 X99.608 Y156.675 E0.5675
G1 X99.405 Y156.141 E0.6306
G1 X99.080 Y155.671 E0.6936
G1 X98.653 Y155.292 E0.7567
G1 X98.147 Y155.026 E0.8197
G1 X97.592 Y154.890 E0.8828
G1 X97.020 Y154.890 E0.9458
G1 X96.466 Y155.026 E1.0089
G1 X95.960 Y155.292 E1.0720
G1 X95.532 Y155.671 E1.1350
G1 X95.207 Y156.141 E1.1981
G1 X95.005 Y156.675 E1.2611
G1 X94.936 Y157.243 E1.3242
G1 X95.005 Y157.810 E1.3872
G1 X95.207 Y158.344 E1.4503
G1 X95.532 Y158.815 E1.5134
G1 X95.960 Y159.194 E1.5764
G1 X96.200 Y159.320 E1.6064
G1 X96.466 Y159.459 F1750
; outer perimeter
G1 X96.671 Y158.917 F7200
G92 E0
G1 X97.090 Y159.020 E0.0476 F1500
G1 X97.522 Y159.020 E0.0952
G1 X97.941 Y158.917 E0.1429
G1 X98.323 Y158.716 E0.1905
G1 X98.646 Y158.430 E0.2381
G1 X98.891 Y158.075 E0.2857
G1 X99.044 Y157.671 E0.3333
G1 X99.096 Y157.243 E0.3810
G1 X99.044 Y156.814 E0.4286
G1 X98.891 Y156.411 E0.4762
G1 X98.646 Y156.056 E0.5238
G1 X98.323 Y155.770 E0.5714
G1 X97.941 Y155.569 E0.6191
G1 X97.522 Y155.466 E0.6667
G1 X97.090 Y155.466 E0.7143
G1 X96.671 Y155.569 E0.7619
G1 X96.289 Y155.770 E0.8096
G1 X95.966 Y156.056 E0.8572
G1 X95.721 Y156.411 E0.9048
G1 X95.568 Y156.814 E0.9524
G1 X95.516 Y157.243 E1.0000
G1 X95.568 Y157.671 E1.0477
G1 X95.721 Y158.075 E1.0953
G1 X95.966 Y158.430 E1.1429
G1 X96.289 Y158.716 E1.1905
G1 X96.406 Y158.777 E1.2050
G1 X96.671 Y158.917 F1500
G92 E0
G1 X97.090 Y159.020 E-0.2913 F4000
G1 X97.522 Y159.020 E-0.5826
G1 X97.941 Y158.917 E-0.8739
G1 X98.323 Y158.716 E-1.1652
G1 X98.646 Y158.430 E-1.4565
G1 X98.891 Y158.075 E-1.7478
G1 X99.044 Y157.671 E-2.0390
G1 X99.096 Y157.243 E-2.3303
G1 X99.044 Y156.814 E-2.6216
G1 X98.891 Y156.411 E-2.9129
G1 X98.646 Y156.056 E-3.2042
G1 X98.323 Y155.770 E-3.4955
G1 X97.941 Y155.569 E-3.7868
G1 X97.522 Y155.466 E-4.0781
G1 X97.090 Y155.466 E-4.3694
G1 X96.671 Y155.569 E-4.6607
G1 X96.289 Y155.770 E-4.9520
G1 X96.236 Y155.817 E-5.0000
; inner perimeter
G1 X131.966 Y159.459 F7200
G1 E-0.1000 F2700
G92 E0
G1 X132.520 Y159.596 E0.0631 F1750
G1 X133.092 Y159.596 E0.1261
G1 X133.647 Y159.459 E0.1892
G1 X134.153 Y159.194 E0.2522
G1 X134.580 Y158.815 E0.3153
G1 X134.905 Y158.344 E0.3783
G1 X135.108 Y157.810 E0.4414
G1 X135.177 Y157.243 E0.5044
G1 X135.108 Y156.675 E0.5675
G1 X134.905 Y156.141 E0.6306
G1 X134.580 Y155.671 E0.6936
G1 X134.153 Y155.292 E0.7567
G1 X133.647 Y155.026 E0.8197
G1 X133.092 Y154.890 E0.8828
G1 X132.520 Y154.890 E0.9458
G1 X131.966 Y155.026 E1.0089
G1 X131.460 Y155.292 E1.0720
G1 X131.032 Y155.671 E1.1350
G1 X130.707 Y156.141 E1.1981
G1 X130.505 Y156.675 E1.2611
G1 X130.436 Y157.243 E1.3242
G1 X130.505 Y157.810 E1.3872
G1 X130.707 Y158.344 E1.4503
G1 X131.032 Y158.815 E1.5134
G1 X131.460 Y159.193 E1.5764
G1 X131.700 Y159.320 E1.6064
G1 X131.966 Y159.459 F1750
; outer perimeter
G1 X132.171 Y158.917 F7200
G92 E0
G1 X132.590 Y159.020 E0.0476 F1500
G1 X133.022 Y159.020 E0.0952
G1 X133.441 Y158.917 E0.1429
G1 X133.823 Y158.716 E0.1905
G1 X134.146 Y158.430 E0.2381
G1 X134.391 Y158.075 E0.2857
G1 X134.544 Y157.671 E0.3333
G1 X134.596 Y157.243 E0.3810
G1 X134.544 Y156.814 E0.4286
G1 X134.391 Y156.411 E0.4762
G1 X134.146 Y156.056 E0.5238
G1 X133.823 Y155.770 E0.5715
G1 X133.441 Y155.569 E0.6191
G1 X133.022 Y155.466 E0.6667
G1 X132.590 Y155.466 E0.7143
G1 X132.171 Y155.569 E0.7619
G1 X131.789 Y155.770 E0.8096
G1 X131.466 Y156.056 E0.8572
G1 X131.221 Y156.411 E0.9048
G1 X131.068 Y156.814 E0.9524
G1 X131.016 Y157.243 E1.0000
G1 X131.068 Y157.671 E1.0477
G1 X131.221 Y158.075 E1.0953
G1 X131.466 Y158.430 E1.1429
G1 X131.789 Y158.716 E1.1905
G1 X131.906 Y158.777 E1.2050
G1 X132.171 Y158.917 F1500
G92 E0
G1 X132.590 Y159.020 E-0.2913 F4000
G1 X133.022 Y159.020 E-0.5826
G1 X133.441 Y158.917 E-0.8739
G1 X133.823 Y158.716 E-1.1652
G1 X134.146 Y158.430 E-1.4565
G1 X134.391 Y158.075 E-1.7478
G1 X134.544 Y157.671 E-2.0391
G1 X134.596 Y157.243 E-2.3304
G1 X134.544 Y156.814 E-2.6217
G1 X134.391 Y156.411 E-2.9129
G1 X134.146 Y156.056 E-3.2043
G1 X133.823 Y155.770 E-3.4955
G1 X133.441 Y155.569 E-3.7868
G1 X133.022 Y155.466 E-4.0781
G1 X132.590 Y155.466 E-4.3694
G1 X132.171 Y155.569 E-4.6607
G1 X131.789 Y155.770 E-4.9520
